!!!COM: Music21
!!!OTL: polka_March-To-Victory--The
!!!OMV: polka_March-To-Victory--The
**kern
*clefG2
*k[f#]
*G:
*M2/4
=1
16gLL
32gL
32gJ
16g
16gJJ
=
16gLL
16gJ
8aJ
4ryy
=
4dd
4ryy
=
16bLL
32gL
32gJ
16g
16gJJ
4ryy
=
32aLLL
32g
32f#
32gJJ
8aJ
4ryy
=
4d
4ryy
=
16ccLL
32aL
32aJ
16a
16aJJ
4ryy
=
8bL
16ccL
32aL
32aJJJ
4ryy
!!linebreak:original
=
16ccLL
16a
16f#
16aJJ
4ryy
=
16ccLL
32aL
32aJ
16cc
16aJJ
4ryy
=
16f#LL
16aJ
8gJ
4ryy
=
16gLL
16d
16d
16dJJ
4ryy
=
8gL
8gJ
4ryy
=
32aLLL
32b
32a
32gJ
16f#
16dJJ
4ryy
=
32ddLLL
32ee
32dd
32ccJ
16b
16ddJJ
4ryy
=
8gL
16aL
16bJJ
4ryy
!!linebreak:original
=
16.ccLL
32bK
16cc
16gJJ
4ryy
=
8eL
16f#L
16gJJ
4ryy
=
16.aLL
32bK
16a
16gJJ
4ryy
=
16f#LL
16d
32eL
32d
32e
32f#JJJ
8gL
8gJ
=
8aL
8aJ
4ryy
=
8ddL
16.ddL
32bJJk
4ryy
=
8gL
16aL
16bJJ
4ryy
=
16.ccLL
32bK
16a
16gJJ
4ryy
!!linebreak:original
=
8f#L
16eL
16f#JJ
4ryy
=
8aL
8gJ
4ryy
=
16gLL
16d
16d
16dJJ
4ryy
=
8gL
8gJ
4ryy
=
8aL
8aJ
4ryy
=
16ddLL
16ee
16dd
16bJJ
4ryy
=
8gL
16aL
16bJJ
4ryy
=
16.ccLL
32bK
16cc
16gJJ
4ryy
=
8eL
16f#L
16gJJ
4ryy
!!linebreak:original
=
16.aLL
32bK
16a
16gJJ
4ryy
=
16f#LL
16d
32eL
32d
32e
32f#JJJ
8gL
8gJ
=
8aL
8aJ
4ryy
=
16.ddLL
32eeK
16.dd
32bJJk
4ryy
=
8gL
16aL
16bJJ
4ryy
=
16.ccLL
32bK
16a
16gJJ
4ryy
=
8f#L
16eL
16f#JJ
4ryy
=
8aL
8gJ
4ryy
!!linebreak:original
=
4g
4ryy
=||
*-
